%%%
VERSION:1
LANGUAGE:ENGLISH
%%%
MODULE test111
PERS tooldata tool11:=[TRUE, [[0,0,170],[1,0,0,0]],[0.001,[0, 0, 0.001],[1, 0, 0, 0], 0, 0, 0]];
PERS wobjdata wobj11:=[FALSE,TRUE,"",[[0,0,0],[1,0,0,0]],[[0,0,0],[1,0,0,0]]];

PROC runtest111()

ConfL \Off;
MoveABSJ [[0,0,0,0,0,0],[0,9E+009,9E+009,9E+009,9E+009,9E+009]],[167,500,5000,500],[TRUE,0.5,0.5,0.5,0.05,0.5,0.05],tool11\WObj:=wobj1;
MoveL [[1462.5,0,1735],[0,0,1,0],[0,0,0,0],[0,9E+009,9E+009,9E+009,9E+009,9E+009]],[167,500,5000,500],[TRUE,0.5,0.5,0.5,0.05,0.5,0.05],tool11\WObj:=wobj1;
MoveL [[1462.502,0,1029.999],[0,0,1,0],[0,0,0,0],[0,9E+009,9E+009,9E+009,9E+009,9E+009]],[167,500,5000,500],[TRUE,0.5,0.5,0.5,0.05,0.5,0.05],tool11\WObj:=wobj1;
MoveL [[1462.502,299.996,1030.006],[0,0,1,0],[0,0,0,0],[0,9E+009,9E+009,9E+009,9E+009,9E+009]],[167,500,5000,500],[TRUE,0.5,0.5,0.5,0.05,0.5,0.05],tool11\WObj:=wobj1;
MoveL [[1599.991,300.008,1029.987],[0,0,-1,0],[0,0,0,0],[0,9E+009,9E+009,9E+009,9E+009,9E+009]],[167,500,5000,500],[TRUE,0.5,0.5,0.5,0.05,0.5,0.05],tool11\WObj:=wobj1;
MoveL [[1599.991,-300.008,1029.987],[0,0,-1,0],[-1,0,-1,0],[0,9E+009,9E+009,9E+009,9E+009,9E+009]],[167,500,5000,500],[TRUE,0.5,0.5,0.5,0.05,0.5,0.05],tool11\WObj:=wobj1;
MoveL [[1462.502,-299.996,1030.006],[0,0,1,0],[-1,0,-1,0],[0,9E+009,9E+009,9E+009,9E+009,9E+009]],[167,500,5000,500],[TRUE,0.5,0.5,0.5,0.05,0.5,0.05],tool11\WObj:=wobj1;
MoveL [[1462.502,0,1029.999],[0,0,1,0],[0,0,0,0],[0,9E+009,9E+009,9E+009,9E+009,9E+009]],[167,500,5000,500],[TRUE,0.5,0.5,0.5,0.05,0.5,0.05],tool11\WObj:=wobj1;
MoveABSJ [[0,0,0,0,0,0],[0,9E+009,9E+009,9E+009,9E+009,9E+009]],[167,500,5000,500],[TRUE,0.5,0.5,0.5,0.05,0.5,0.05],tool11\WObj:=wobj1;
ENDPROC
ENDMODULE
